Yaru++/apps/scalable/wps-office-wppmain.svg

<svg enable-background="new" height="256" viewBox="0 0 256 256" width="256" xmlns="http://www.w3.org/2000/svg" xmlns:xlink="http://www.w3.org/1999/xlink">
  <linearGradient id="linearGradient4358" gradientUnits="userSpaceOnUse" x1="88" x2="488" y1="88" y2="488">
    <stop offset="0" stop-opacity=".588235"/>
    <stop offset="1" stop-opacity=".205556"/>
  </linearGradient>
  <filter id="filter4380" color-interpolation-filters="sRGB" height="1.088" width="1.106" x="-.05" y="-.04">
    <feGaussianBlur stdDeviation="8.48"/>
  </filter>
  <filter id="filter4346" color-interpolation-filters="sRGB" height="1.022" width="1.026" x="-.01" y="-.01">
    <feGaussianBlur stdDeviation="2.12"/>
  </filter>
  <path d="m141.84323 74c-70.59344 0-78.18921 7.250835-77.84323 77.98706v146.01294 146.01294c-.34598 70.73623 7.24979 77.98706 77.84323 77.98706h292.31354c70.59344 0 79.78033-7.27652 77.84323-77.98706v-146.01294-146.01294c0-70.737067-7.24979-77.98706-77.84323-77.98706z" filter="url(#filter4346)" opacity=".1" transform="matrix(.5 0 0 .5 -14.116488 -20.825537)"/>
  <path d="m141.84323 74c-70.59344 0-78.18921 7.250835-77.84323 77.98706v146.01294 146.01294c-.34598 70.73623 7.24979 77.98706 77.84323 77.98706h292.31354c70.59344 0 79.78033-7.27652 77.84323-77.98706v-146.01294-146.01294c0-70.737067-7.24979-77.98706-77.84323-77.98706z" fill="url(#linearGradient4358)" filter="url(#filter4380)" opacity=".3" transform="matrix(.5 0 0 .5 -14.116488 -20.825235)"/>
  <path d="m55.695112 13.174464c-36.098811 0-39.983003 3.690159-39.806081 39.689839v74.310167 74.31016c-.176922 35.99969 3.70727 39.68984 39.806081 39.68984h148.387318c36.09881 0 40.77464-3.70276 39.80608-39.68984v-74.31016-74.310167c0-36.00011-3.70727-39.689839-39.80608-39.689839z" opacity=".2"/>
  <path d="m202.95649 15.174464c35.29673 0 39.09461 3.625419 38.92162 38.993529v73.006477 73.00647c.17299 35.36812-3.62489 38.99353-38.92162 38.99353h-146.156758c-35.296716 0-38.921616-3.625-38.921616-38.99353v-73.00647-73.006477c0-35.36853 3.6249-38.993529 38.921616-38.993529z" fill="#fb7c38"/>
  <path d="m56.805392 15.174464c-35.296728 0-39.09487 3.626029-38.92188 38.994139v2c-.17299-35.36811 3.625152-38.99414 38.92188-38.99414h146.156238c35.29673 0 38.92188 3.62561 38.92188 38.99414v-2c0-35.36853-3.62515-38.994139-38.92188-38.994139z" fill="#fff" opacity=".3"/>
  <path d="m56.810792 239.17447c-35.296731 0-39.094875-3.62603-38.921885-38.99414v-2c-.17299 35.36811 3.625154 38.99414 38.921885 38.99414h146.156238c35.29673 0 38.92188-3.62561 38.92188-38.99414v2c0 35.36853-3.62515 38.99414-38.92188 38.99414z" opacity=".2"/>
  <path d="m82.052734 67.175781a12.001341 12.001341 0 1 0 0 24h67.080076s5.19259.170097 9.75781 2.072266c4.56523 1.902169 6.99024 2.706539 6.99024 9.884763 0 7.17823-2.42501 7.9826-6.99024 9.88477-4.56522 1.90217-9.75781 2.07226-9.75781 2.07226h-67.080076a12.001341 12.001341 0 0 0 -12.001953 12v47.91407a12.001341 12.001341 0 1 0 24.001953 0v-35.91407h55.080076s9.18145.16902 18.99024-3.91796c9.80878-4.08699 21.75781-15.26069 21.75781-32.03907 0-16.77837-11.94903-27.95208-21.75781-32.03906-9.80879-4.08698-18.99024-3.917969-18.99024-3.917969z" fill="#fff6f1" fill-opacity=".985714"/>
  <path d="m82.052734 67.175781a12.001341 12.001341 0 0 0 -12.130859 12.925781 12.001341 12.001341 0 0 1 12.130859-10.925781h67.080076s9.18145-.169011 18.99024 3.917969c9.61186 4.004931 21.2698 14.818632 21.73437 31.03906.00952-.3323.02344-.66316.02344-1 0-16.778367-11.94903-27.95208-21.75781-32.03906-9.80879-4.08698-18.99024-3.917969-18.99024-3.917969zm83.804686 36.957029c-.2257 6.24808-2.62563 7.07596-6.9668 8.88477-4.56522 1.90217-9.75781 2.07226-9.75781 2.07226h-67.080076a12.001341 12.001341 0 0 0 -12.001953 12v2a12.001341 12.001341 0 0 1 12.001953-12h67.080076s5.19259-.17009 9.75781-2.07226c4.56524-1.90217 6.99024-2.70654 6.99024-9.88477 0-.35231-.01179-.67751-.02344-1z" fill="#fff" fill-opacity=".995" opacity=".3"/>
  <path d="m69.921875 78.101562a12.001341 12.001341 0 0 0 12.130859 13.074219h67.080076s5.19259.170097 9.75781 2.072266c4.34117 1.80881 6.7411 2.636689 6.9668 8.884763.01165-.32248.02344-.64769.02344-1 0-7.178221-2.42501-7.982594-6.99024-9.884763-4.56522-1.902169-9.75781-2.072266-9.75781-2.072266h-67.080076a12.001341 12.001341 0 0 1 -12.130859-11.074219zm119.935545 24.031248c-.46457 16.22044-12.12251 27.03412-21.73437 31.03907-9.80879 4.08697-18.99024 3.91796-18.99024 3.91796h-55.080076v2h55.080076s9.18145.16901 18.99024-3.91796c9.80878-4.08699 21.75781-15.26069 21.75781-32.03907 0-.33683-.01392-.66769-.02344-1zm-119.806639 70.8711v2a12.001341 12.001341 0 1 0 24.001953 0v-2a12.001341 12.001341 0 1 1 -24.001953 0z" fill-opacity=".985714" opacity=".2"/>
</svg>

<svg xmlns="http://www.w3.org/2000/svg" xmlns:xlink="http://www.w3.org/1999/xlink" style="enable-background:new" width="256" height="256" version="1.0" viewBox="0 0 256 256">
 <title id="title4162">
  Adwaita Icon Template
 </title>
 <defs>
  <linearGradient id="linearGradient1115">
   <stop id="stop1103" offset="0" style="stop-color:#d5d3cf"/>
   <stop style="stop-color:#e3e2df" id="stop1105" offset=".038"/>
   <stop style="stop-color:#c0bfbc" id="stop1107" offset=".077"/>
   <stop style="stop-color:#c0bfbc" id="stop1109" offset=".923"/>
   <stop style="stop-color:#e3e2df" id="stop1111" offset=".962"/>
   <stop id="stop1113" offset="1" style="stop-color:#d5d3cf"/>
  </linearGradient>
  <linearGradient id="linearGradient6058">
   <stop style="stop-color:#ffffff" id="stop6054" offset="0"/>
   <stop style="stop-color:#f6f5f4" id="stop6056" offset="1"/>
  </linearGradient>
  <linearGradient id="paint3_linear-2-6-5" x2="1" gradientTransform="matrix(0,6,-12,0,-64,209.99687)" gradientUnits="userSpaceOnUse">
   <stop id="stop91-0-7-4" stop-color="#C01C27"/>
   <stop id="stop93-2-5-7" offset="1" stop-color="#E01B24"/>
  </linearGradient>
  <linearGradient id="linearGradient1097" x1="43.844" x2="-60" y1="234" y2="234" gradientTransform="matrix(1.0015061,0,0,0.99993452,72.09037,56.015192)" gradientUnits="userSpaceOnUse" xlink:href="#linearGradient1115"/>
  <radialGradient id="radialGradient1099" cx="-24.239" cy="225.596" r="24" fx="-24.239" fy="225.596" gradientTransform="matrix(1.757743,-9.5621778e-8,3.7652438e-8,1.9495846,106.60563,-336.54495)" gradientUnits="userSpaceOnUse" xlink:href="#linearGradient6058"/>
  <linearGradient id="linearGradient1383" x2="1" gradientTransform="matrix(0,6,-12,0,-264,209.99687)" gradientUnits="userSpaceOnUse" xlink:href="#paint3_linear-2-6-5"/>
  <linearGradient id="linearGradient4358" x1="88" x2="488" y1="88" y2="488" gradientUnits="userSpaceOnUse" xlink:href="#linearGradient4360"/>
  <linearGradient id="linearGradient4360">
   <stop id="stop4362" offset="0" style="stop-color:#000000;stop-opacity:0.58823532"/>
   <stop id="stop4366" offset="1" style="stop-color:#000000;stop-opacity:0.20555556"/>
  </linearGradient>
  <filter style="color-interpolation-filters:sRGB" id="filter4380" width="1.106" height="1.088" x="-.05" y="-.04">
   <feGaussianBlur id="feGaussianBlur4382" stdDeviation="8.48"/>
  </filter>
  <filter style="color-interpolation-filters:sRGB" id="filter4346" width="1.026" height="1.022" x="-.01" y="-.01">
   <feGaussianBlur id="feGaussianBlur4348" stdDeviation="2.12"/>
  </filter>
 </defs>
 <path style="opacity:0.1;filter:url(#filter4346)" d="M 141.84323,74 C 71.24979,74 63.65402,81.250835 64,151.98706 V 298 444.01294 C 63.65402,514.74917 71.24979,522 141.84323,522 H 434.15677 C 504.75021,522 513.9371,514.72348 512,444.01294 V 298 151.98706 C 512,81.249993 504.75021,74 434.15677,74 Z" transform="matrix(0.5,0,0,0.5,-14.116488,-20.825537)"/>
 <path d="M 141.84323,74 C 71.24979,74 63.65402,81.250835 64,151.98706 V 298 444.01294 C 63.65402,514.74917 71.24979,522 141.84323,522 H 434.15677 C 504.75021,522 513.9371,514.72348 512,444.01294 V 298 151.98706 C 512,81.249993 504.75021,74 434.15677,74 Z" transform="matrix(0.5,0,0,0.5,-14.116488,-20.825235)" style="opacity:0.3;fill:url(#linearGradient4358);filter:url(#filter4380)"/>
 <path style="opacity:0.2" d="m 55.695112,13.174464 c -36.098811,0 -39.983003,3.690159 -39.806081,39.689839 v 74.310167 74.31016 c -0.176922,35.99969 3.70727,39.68984 39.806081,39.68984 H 204.08243 c 36.09881,0 40.77464,-3.70276 39.80608,-39.68984 V 127.17447 52.864303 c 0,-36.00011 -3.70727,-39.689839 -39.80608,-39.689839 z"/>
 <path style="fill:#fb7c38" d="m 202.95649,15.174464 c 35.29673,0 39.09461,3.625419 38.92162,38.993529 v 73.006477 73.00647 c 0.17299,35.36812 -3.62489,38.99353 -38.92162,38.99353 H 56.799732 c -35.296716,0 -38.921616,-3.625 -38.921616,-38.99353 V 127.17447 54.167993 c 0,-35.36853 3.6249,-38.993529 38.921616,-38.993529 z"/>
 <path style="opacity:0.3;fill:#ffffff" d="m 56.805392,15.174464 c -35.296728,0 -39.09487,3.626029 -38.92188,38.994139 v 2 c -0.17299,-35.36811 3.625152,-38.99414 38.92188,-38.99414 H 202.96163 c 35.29673,0 38.92188,3.62561 38.92188,38.99414 v -2 c 0,-35.36853 -3.62515,-38.994139 -38.92188,-38.994139 z"/>
 <path style="opacity:0.2" d="m 56.810792,239.17447 c -35.296731,0 -39.094875,-3.62603 -38.921885,-38.99414 v -2 c -0.17299,35.36811 3.625154,38.99414 38.921885,38.99414 H 202.96703 c 35.29673,0 38.92188,-3.62561 38.92188,-38.99414 v 2 c 0,35.36853 -3.62515,38.99414 -38.92188,38.99414 z"/>
 <path style="fill:#fff6f1;fill-opacity:0.98571426" d="m 82.052734,67.175781 a 12.001341,12.001341 0 1 0 0,24 h 67.080076 c 0,0 5.19259,0.170097 9.75781,2.072266 4.56523,1.902169 6.99024,2.706539 6.99024,9.884763 0,7.17823 -2.42501,7.9826 -6.99024,9.88477 -4.56522,1.90217 -9.75781,2.07226 -9.75781,2.07226 H 82.052734 a 12.001341,12.001341 0 0 0 -12.001953,12 v 47.91407 a 12.001341,12.001341 0 1 0 24.001953,0 v -35.91407 h 55.080076 c 0,0 9.18145,0.16902 18.99024,-3.91796 9.80878,-4.08699 21.75781,-15.26069 21.75781,-32.03907 0,-16.77837 -11.94903,-27.95208 -21.75781,-32.03906 -9.80879,-4.08698 -18.99024,-3.917969 -18.99024,-3.917969 z"/>
 <path style="opacity:0.3;fill:#ffffff;fill-opacity:0.995" d="M 82.052734 67.175781 A 12.001341 12.001341 0 0 0 69.921875 80.101562 A 12.001341 12.001341 0 0 1 82.052734 69.175781 L 149.13281 69.175781 C 149.13281 69.175781 158.31426 69.00677 168.12305 73.09375 C 177.73491 77.098681 189.39285 87.912382 189.85742 104.13281 C 189.86694 103.80051 189.88086 103.46965 189.88086 103.13281 C 189.88086 86.354443 177.93183 75.18073 168.12305 71.09375 C 158.31426 67.00677 149.13281 67.175781 149.13281 67.175781 L 82.052734 67.175781 z M 165.85742 104.13281 C 165.63172 110.38089 163.23179 111.20877 158.89062 113.01758 C 154.3254 114.91975 149.13281 115.08984 149.13281 115.08984 L 82.052734 115.08984 A 12.001341 12.001341 0 0 0 70.050781 127.08984 L 70.050781 129.08984 A 12.001341 12.001341 0 0 1 82.052734 117.08984 L 149.13281 117.08984 C 149.13281 117.08984 154.3254 116.91975 158.89062 115.01758 C 163.45586 113.11541 165.88086 112.31104 165.88086 105.13281 C 165.88086 104.7805 165.86907 104.4553 165.85742 104.13281 z"/>
 <path style="opacity:0.2;fill-opacity:0.98571426" d="M 69.921875 78.101562 A 12.001341 12.001341 0 0 0 82.052734 91.175781 L 149.13281 91.175781 C 149.13281 91.175781 154.3254 91.345878 158.89062 93.248047 C 163.23179 95.056857 165.63172 95.884736 165.85742 102.13281 C 165.86907 101.81033 165.88086 101.48512 165.88086 101.13281 C 165.88086 93.954589 163.45585 93.150216 158.89062 91.248047 C 154.3254 89.345878 149.13281 89.175781 149.13281 89.175781 L 82.052734 89.175781 A 12.001341 12.001341 0 0 1 69.921875 78.101562 z M 189.85742 102.13281 C 189.39285 118.35325 177.73491 129.16693 168.12305 133.17188 C 158.31426 137.25885 149.13281 137.08984 149.13281 137.08984 L 94.052734 137.08984 L 94.052734 139.08984 L 149.13281 139.08984 C 149.13281 139.08984 158.31426 139.25885 168.12305 135.17188 C 177.93183 131.08489 189.88086 119.91119 189.88086 103.13281 C 189.88086 102.79598 189.86694 102.46512 189.85742 102.13281 z M 70.050781 173.00391 L 70.050781 175.00391 A 12.001341 12.001341 0 1 0 94.052734 175.00391 L 94.052734 173.00391 A 12.001341 12.001341 0 1 1 70.050781 173.00391 z"/>
</svg>
